resources/assets/icons/file-coins.svg

<svg xmlns="http://www.w3.org/2000/svg" viewBox="0 0 20 20"><g fill="none" stroke="currentColor" stroke-width="2" stroke-linecap="round" stroke-linejoin="round"><path d="M9.8 16.1c0-.4-.3-.7-.8-.7H3.4c-.4 0-.8.3-.8.7v2.1c0 .4.3.8.8.8H9c.4 0 .8-.3.8-.8v-2.1zM8.2 12.5c0-.4-.3-.8-.8-.8H1.8c-.4 0-.8.3-.8.8v2.1c0 .4.3.8.8.8h5.6c.4 0 .8-.3.8-.8v-2.1h0z"/><path d="M9.3 8.9c0-.4-.3-.8-.8-.8H2.9c-.4 0-.8.3-.8.8V11c0 .4.3.8.8.8h5.6c.4 0 .8-.3.8-.8V8.9h0z"/><path d="M12.2 19h5.3c.9 0 1.5-.8 1.5-1.6V2.6c0-.9-.8-1.6-1.5-1.6h0-7.9c-.4 0-.8.1-1.2.4l-3 3.2C5 5 5 5.4 5 5.8"/></g></svg>

<?xml version="1.0" encoding="utf-8"?>
<!-- Generator: Adobe Illustrator 22.0.1, SVG Export Plug-In . SVG Version: 6.00 Build 0)  -->
<svg version="1.1" id="Layer_1" xmlns="http://www.w3.org/2000/svg" xmlns:xlink="http://www.w3.org/1999/xlink" x="0px" y="0px"
	 viewBox="0 0 20 20" enable-background="new 0 0 20 20" xml:space="preserve">
<g>
	<path fill="none" stroke="#000001" stroke-width="2" stroke-linecap="round" stroke-linejoin="round" d="M9.8,16.1
		c0-0.4-0.3-0.7-0.8-0.7H3.4c-0.4,0-0.8,0.3-0.8,0.7v2.1c0,0.4,0.3,0.8,0.8,0.8H9c0.4,0,0.8-0.3,0.8-0.8V16.1z"/>
	<path fill="none" stroke="#000001" stroke-width="2" stroke-linecap="round" stroke-linejoin="round" d="M8.2,12.5
		c0-0.4-0.3-0.8-0.8-0.8H1.8C1.4,11.7,1,12,1,12.5v2.1c0,0.4,0.3,0.8,0.8,0.8h5.6c0.4,0,0.8-0.3,0.8-0.8V12.5L8.2,12.5z"/>
	<path fill="none" stroke="#000001" stroke-width="2" stroke-linecap="round" stroke-linejoin="round" d="M9.3,8.9
		c0-0.4-0.3-0.8-0.8-0.8H2.9c-0.4,0-0.8,0.3-0.8,0.8v2.1c0,0.4,0.3,0.8,0.8,0.8h5.6c0.4,0,0.8-0.3,0.8-0.8V8.9L9.3,8.9z"/>
	<path fill="none" stroke="#000001" stroke-width="2" stroke-linecap="round" stroke-linejoin="round" d="M12.2,19h5.3
		c0.9,0,1.5-0.8,1.5-1.6V2.6C19,1.7,18.2,1,17.5,1l0,0H9.6C9.2,1,8.8,1.1,8.4,1.4l-3,3.2C5,5,5,5.4,5,5.8"/>
</g>
</svg>
